src/status/symbolic/microphone-sensitivity-high-symbolic.svg

<svg width="16.001" height="16" version="1.1" xmlns="http://www.w3.org/2000/svg">
 <g fill="#363636">
  <path d="m15.343 4.926 0.707 0.707-0.354 0.354a2.999 2.999 0 0 0 0 4.242l0.354 0.353-0.707 0.707-0.354-0.353a4 4 0 0 1 0-5.656z" color="#000000" font-family="sans-serif" font-weight="400" overflow="visible" style="font-feature-settings:normal;font-variant-alternates:normal;font-variant-caps:normal;font-variant-ligatures:normal;font-variant-numeric:normal;font-variant-position:normal;isolation:auto;mix-blend-mode:normal;shape-padding:0;text-decoration-color:#000000;text-decoration-line:none;text-decoration-style:solid;text-indent:0;text-orientation:mixed;text-transform:none;white-space:normal"/>
  <path d="m13.221 2.805 0.707 0.707-0.353 0.353a5.999 5.999 0 0 0 0 8.485l0.353 0.353-0.707 0.707-0.353-0.353a7 7 0 0 1 0-9.899z" color="#000000" font-family="sans-serif" font-weight="400" overflow="visible" style="font-feature-settings:normal;font-variant-alternates:normal;font-variant-caps:normal;font-variant-ligatures:normal;font-variant-numeric:normal;font-variant-position:normal;isolation:auto;mix-blend-mode:normal;shape-padding:0;text-decoration-color:#000000;text-decoration-line:none;text-decoration-style:solid;text-indent:0;text-orientation:mixed;text-transform:none;white-space:normal"/>
  <path d="m4.5 0a2.495 2.495 0 0 0-2.5 2.5v6c0 1.385 1.115 2.5 2.5 2.5s2.5-1.115 2.5-2.5v-6c0-1.385-1.115-2.5-2.5-2.5zm-4.5 7v1.5c0 2.321 1.748 4.199 4 4.45v2.05h-2v1h5v-1h-2v-2.05c2.252-0.251 4-2.129 4-4.45v-1.5h-1v1.5c0 1.939-1.561 3.5-3.5 3.5s-3.5-1.561-3.5-3.5v-1.5z" stroke-linecap="square" stroke-width="2"/>
 </g>
</svg>

<svg xmlns="http://www.w3.org/2000/svg" width="16.001" height="16">
    <g fill="#050505" opacity=".7">
        <path d="m15.343 4.926.707.707-.354.354a2.999 2.999 0 0 0 0 4.242l.354.353-.707.707-.354-.353a4 4 0 0 1 0-5.656z" color="#000" font-family="sans-serif" font-weight="400" overflow="visible" style="font-feature-settings:normal;font-variant-alternates:normal;font-variant-caps:normal;font-variant-ligatures:normal;font-variant-numeric:normal;font-variant-position:normal;isolation:auto;mix-blend-mode:normal;shape-padding:0;text-decoration-color:#000;text-decoration-line:none;text-decoration-style:solid;text-indent:0;text-orientation:mixed;text-transform:none;white-space:normal"/>
        <path d="m13.221 2.805.707.707-.353.353a5.999 5.999 0 0 0 0 8.485l.353.353-.707.707-.353-.353a7 7 0 0 1 0-9.899z" color="#000" font-family="sans-serif" font-weight="400" overflow="visible" style="font-feature-settings:normal;font-variant-alternates:normal;font-variant-caps:normal;font-variant-ligatures:normal;font-variant-numeric:normal;font-variant-position:normal;isolation:auto;mix-blend-mode:normal;shape-padding:0;text-decoration-color:#000;text-decoration-line:none;text-decoration-style:solid;text-indent:0;text-orientation:mixed;text-transform:none;white-space:normal"/>
        <path d="M4.5 0A2.495 2.495 0 0 0 2 2.5v6C2 9.885 3.115 11 4.5 11S7 9.885 7 8.5v-6C7 1.115 5.885 0 4.5 0zM0 7v1.5c0 2.321 1.748 4.199 4 4.45V15H2v1h5v-1H5v-2.05c2.252-.251 4-2.129 4-4.45V7H8v1.5C8 10.439 6.439 12 4.5 12S1 10.439 1 8.5V7z"/>
    </g>
</svg>
